icon/ir/home-shield.svg

<svg viewBox="0 0 24 24" stroke-width="1.5" fill="none" xmlns="http://www.w3.org/2000/svg" height="1em" width="1em">
  <path d="M3 9.5L12 4L21 9.5" stroke="currentColor" stroke-linecap="round" stroke-linejoin="round"/>
  <path d="M19 13V19.4C19 19.7314 18.7314 20 18.4 20H5.6C5.26863 20 5 19.7314 5 19.4V13" stroke="currentColor" stroke-linecap="round" stroke-linejoin="round"/>
  <path d="M12.5019 9.13013L14.5506 9.66126C14.8152 9.72987 15.0015 9.9695 14.9924 10.2427C14.8262 15.232 12 16 12 16C12 16 9.17375 15.232 9.00762 10.2427C8.99852 9.9695 9.18479 9.72987 9.44942 9.66126L11.4981 9.13013C11.8273 9.04479 12.1727 9.04479 12.5019 9.13013Z" stroke="currentColor" stroke-linecap="round" stroke-linejoin="round"/>
</svg>

<svg width="24" height="24" stroke-width="1.5" fill="none" xmlns="http://www.w3.org/2000/svg"><path d="M3 9.5 12 4l9 5.5M19 13v6.4a.6.6 0 0 1-.6.6H5.6a.6.6 0 0 1-.6-.6V13" stroke="currentColor" stroke-linecap="round" stroke-linejoin="round"/><path d="m12.502 9.13 2.049.531c.264.069.45.309.441.582C14.826 15.232 12 16 12 16s-2.826-.768-2.992-5.757a.584.584 0 0 1 .441-.582l2.05-.53a2 2 0 0 1 1.003 0Z" stroke="currentColor" stroke-linecap="round" stroke-linejoin="round"/></svg>
